Adwaita++-Light/panel/16/krudiotray-light-on16.svg

<svg height="16" width="16" xmlns="http://www.w3.org/2000/svg">
  <path d="m1.015625 2c-.5628444 0-1.015625.4575152-1.015625 1.0273438v9.9453122c0 .57.4527806 1.027344 1.015625 1.027344h13.96875c.563556 0 1.015625-.457344 1.015625-1.027344v-9.9453122c0-.5696572-.452069-1.0273438-1.015625-1.0273438zm3.984375 2c2.209 0 4 1.7909 4 4 0 2.209-1.791 4-4 4-2.2091 0-4-1.791-4-4 0-2.2091 1.7909-4 4-4zm5 0h5v1h-5zm0 3h5v1h-5zm0 3h5v1h-5z" fill="#444"/>
  <path d="m5.0996 5c-1.6569 0-3 1.3432-3 3 0 1.657 1.3431 3 3 3s3.0004-1.343 3.0004-3c0-1.6568-1.3435-3-3.0004-3z" fill="#4285f4"/>
</svg>

<svg xmlns="http://www.w3.org/2000/svg" width="16" height="16" version="1.1">
 <defs>
  <style id="current-color-scheme" type="text/css">
   .ColorScheme-Text { color:#444444; } .ColorScheme-Highlight { color:#4285f4; }
  </style>
 </defs>
 <path style="fill:currentColor" class="ColorScheme-Text" d="M 1.015625 2 C 0.4527806 2 -1.4802974e-16 2.4575152 0 3.0273438 L 0 12.972656 C 0 13.542656 0.4527806 14 1.015625 14 L 14.984375 14 C 15.547931 14 16 13.542656 16 12.972656 L 16 3.0273438 C 16 2.4576866 15.547931 2 14.984375 2 L 1.015625 2 z M 5 4 C 7.209 4 9 5.7909 9 8 C 9 10.209 7.209 12 5 12 C 2.7909 12 1 10.209 1 8 C 1 5.7909 2.7909 4 5 4 z M 10 4 L 15 4 L 15 5 L 10 5 L 10 4 z M 10 7 L 15 7 L 15 8 L 10 8 L 10 7 z M 10 10 L 15 10 L 15 11 L 10 11 L 10 10 z"/>
 <path style="fill:currentColor" class="ColorScheme-Highlight" d="m 5.0996,5 c -1.6569,0 -3,1.3432 -3,3 0,1.657 1.3431,3 3,3 C 6.7565,11 8.1,9.657 8.1,8 8.1,6.3432 6.7565,5 5.0996,5 Z"/>
</svg>
